Numix-Circle/48x48/apps/rct.svg

<?xml version="1.0" encoding="UTF-8" standalone="no"?>
<svg
   xmlns:dc="http://purl.org/dc/elements/1.1/"
   xmlns:cc="http://creativecommons.org/ns#"
   xmlns:rdf="http://www.w3.org/1999/02/22-rdf-syntax-ns#"
   xmlns:svg="http://www.w3.org/2000/svg"
   xmlns="http://www.w3.org/2000/svg"
   xmlns:xlink="http://www.w3.org/1999/xlink"
   xmlns:sodipodi="http://sodipodi.sourceforge.net/DTD/sodipodi-0.dtd"
   xmlns:inkscape="http://www.inkscape.org/namespaces/inkscape"
   viewBox="0 0 48 48"
   id="svg2"
   version="1.1"
   inkscape:version="0.91 r13725"
   sodipodi:docname="rct.svg">
  <metadata
     id="metadata69">
    <rdf:RDF>
      <cc:Work
         rdf:about="">
        <dc:format>image/svg+xml</dc:format>
        <dc:type
           rdf:resource="http://purl.org/dc/dcmitype/StillImage" />
      </cc:Work>
    </rdf:RDF>
  </metadata>
  <sodipodi:namedview
     pagecolor="#ffffff"
     bordercolor="#666666"
     borderopacity="1"
     objecttolerance="10"
     gridtolerance="10"
     guidetolerance="10"
     inkscape:pageopacity="0"
     inkscape:pageshadow="2"
     inkscape:window-width="1280"
     inkscape:window-height="998"
     id="namedview67"
     showgrid="false"
     inkscape:zoom="4"
     inkscape:cx="-6.5161229"
     inkscape:cy="28.477176"
     inkscape:window-x="0"
     inkscape:window-y="0"
     inkscape:window-maximized="1"
     inkscape:current-layer="svg2">
    <inkscape:grid
       type="xygrid"
       id="grid3408" />
  </sodipodi:namedview>
  <defs
     id="defs4">
    <linearGradient
       inkscape:collect="always"
       id="linearGradient4469">
      <stop
         style="stop-color:#89bdef;stop-opacity:1;"
         offset="0"
         id="stop4471" />
      <stop
         style="stop-color:#9bc7f1;stop-opacity:1"
         offset="1"
         id="stop4473" />
    </linearGradient>
    <linearGradient
       id="linearGradient3764"
       x1="1"
       x2="47"
       gradientUnits="userSpaceOnUse"
       gradientTransform="matrix(0,-1,1,0,-1.5e-6,47.999998)">
      <stop
         stop-color="#3d3d3d"
         stop-opacity="1"
         id="stop7" />
      <stop
         offset="1"
         stop-color="#474747"
         stop-opacity="1"
         id="stop9" />
    </linearGradient>
    <clipPath
       id="clipPath-501793429">
      <g
         transform="translate(0,-1004.3622)"
         id="g12">
        <path
           d="m -24 13 c 0 1.105 -0.672 2 -1.5 2 -0.828 0 -1.5 -0.895 -1.5 -2 0 -1.105 0.672 -2 1.5 -2 0.828 0 1.5 0.895 1.5 2 z"
           transform="matrix(15.333333,0,0,11.5,414.99999,878.8622)"
           fill="#1890d0"
           id="path14" />
      </g>
    </clipPath>
    <clipPath
       id="clipPath-511268767">
      <g
         transform="translate(0,-1004.3622)"
         id="g17">
        <path
           d="m -24 13 c 0 1.105 -0.672 2 -1.5 2 -0.828 0 -1.5 -0.895 -1.5 -2 0 -1.105 0.672 -2 1.5 -2 0.828 0 1.5 0.895 1.5 2 z"
           transform="matrix(15.333333,0,0,11.5,414.99999,878.8622)"
           fill="#1890d0"
           id="path19" />
      </g>
    </clipPath>
    <linearGradient
       inkscape:collect="always"
       xlink:href="#linearGradient4469"
       id="linearGradient4475"
       x1="1"
       y1="24"
       x2="47"
       y2="24"
       gradientUnits="userSpaceOnUse"
       gradientTransform="translate(-48,0)" />
  </defs>
  <g
     id="g21">
    <path
       d="m 36.31 5 c 5.859 4.062 9.688 10.831 9.688 18.5 c 0 12.426 -10.07 22.5 -22.5 22.5 c -7.669 0 -14.438 -3.828 -18.5 -9.688 c 1.037 1.822 2.306 3.499 3.781 4.969 c 4.085 3.712 9.514 5.969 15.469 5.969 c 12.703 0 23 -10.298 23 -23 c 0 -5.954 -2.256 -11.384 -5.969 -15.469 c -1.469 -1.475 -3.147 -2.744 -4.969 -3.781 z m 4.969 3.781 c 3.854 4.113 6.219 9.637 6.219 15.719 c 0 12.703 -10.297 23 -23 23 c -6.081 0 -11.606 -2.364 -15.719 -6.219 c 4.16 4.144 9.883 6.719 16.219 6.719 c 12.703 0 23 -10.298 23 -23 c 0 -6.335 -2.575 -12.06 -6.719 -16.219 z"
       id="path23"
       opacity="0.05" />
    <path
       d="m 41.28 8.781 c 3.712 4.085 5.969 9.514 5.969 15.469 c 0 12.703 -10.297 23 -23 23 c -5.954 0 -11.384 -2.256 -15.469 -5.969 c 4.113 3.854 9.637 6.219 15.719 6.219 c 12.703 0 23 -10.298 23 -23 c 0 -6.081 -2.364 -11.606 -6.219 -15.719 z"
       id="path25"
       opacity="0.1" />
    <path
       d="m 31.25 2.375 c 8.615 3.154 14.75 11.417 14.75 21.13 c 0 12.426 -10.07 22.5 -22.5 22.5 c -9.708 0 -17.971 -6.135 -21.12 -14.75 a 23 23 0 0 0 44.875 -7 a 23 23 0 0 0 -16 -21.875 z"
       id="path27"
       opacity="0.2" />
  </g>
  <g
     id="g33" />
  <circle
     style="opacity:1;fill:url(#linearGradient4475);fill-opacity:1;fill-rule:nonzero;stroke:none;stroke-width:30.89999962;stroke-linejoin:round;stroke-miterlimit:4;stroke-dasharray:none;stroke-opacity:1"
     id="path4467"
     cx="-24"
     cy="24"
     r="23"
     transform="matrix(0,-1,1,0,0,0)" />
  <path
     style="opacity:0.1;fill:#000000;fill-opacity:1;fill-rule:evenodd;stroke:none;stroke-width:1px;stroke-linecap:butt;stroke-linejoin:miter;stroke-opacity:1"
     d="M 25 9 L 24.490234 10.017578 A 7 5.142857 0 0 0 18.007812 15 L 18 15 A 1 1 0 0 0 17 16 A 1 1 0 0 0 18 17 L 18 18 L 18 23 L 18 28 C 18 28.792483 15.34112 39.546502 14.058594 44.708984 A 23 23 0 0 0 24 47 A 23 23 0 0 0 35.708984 43.765625 C 35.054072 41.126146 34.154218 37.481318 33.404297 34.355469 C 34.763899 33.907912 36.002235 33.180044 36 31.5 L 36 27 C 35.131364 26.148861 34.019133 25.41935 32.748047 24.816406 L 32.748047 29.042969 L 32.083984 28.541016 C 32.039428 28.298843 32 28.075989 32 28 L 32 17 A 1 1 0 0 0 33 16 A 1 1 0 0 0 32 15 A 7.0078207 5.142857 0 0 0 25.509766 10.017578 L 25 9 z M 29.525391 12.132812 C 29.525391 12.132812 29.527344 12.132812 29.527344 12.132812 C 30.498892 13.005222 30.992837 14.007256 31.005859 15 L 31 15 C 30.986999 14.007733 30.494841 13.005368 29.525391 12.132812 z "
     id="path4549" />
  <path
     id="path4455"
     d="M 24,8.9999997 A 7.0078207,5.142857 0 0 1 31,14 l -0.993297,0 C 29.980244,11.982997 27.967798,9.9268456 24,8.9999997 Z"
     style="opacity:1;fill:#f9e649;fill-opacity:1;fill-rule:nonzero;stroke:none;stroke-width:30.89999962;stroke-linejoin:round;stroke-miterlimit:4;stroke-dasharray:none;stroke-opacity:1"
     inkscape:connector-curvature="0" />
  <path
     style="fill:#8b9093;fill-rule:evenodd;stroke:none;stroke-width:1px;stroke-linecap:butt;stroke-linejoin:miter;stroke-opacity:1;fill-opacity:1"
     d="m 23,10 1,-2 1,2 z"
     id="path4314"
     inkscape:connector-curvature="0" />
  <g
     id="g4397">
    <rect
       y="16"
       x="17"
       height="11"
       width="1"
       id="rect4385"
       style="opacity:1;fill:#ff5b55;fill-opacity:1;fill-rule:nonzero;stroke:none;stroke-width:30.89999962;stroke-linejoin:round;stroke-miterlimit:4;stroke-dasharray:none;stroke-opacity:1" />
    <rect
       y="16"
       x="18"
       height="11"
       width="3"
       id="rect4387"
       style="opacity:1;fill:#f9e649;fill-opacity:1;fill-rule:nonzero;stroke:none;stroke-width:30.89999962;stroke-linejoin:round;stroke-miterlimit:4;stroke-dasharray:none;stroke-opacity:1" />
    <rect
       y="16"
       x="21"
       height="11"
       width="3"
       id="rect4389"
       style="opacity:1;fill:#ff5b55;fill-opacity:1;fill-rule:nonzero;stroke:none;stroke-width:30.89999962;stroke-linejoin:round;stroke-miterlimit:4;stroke-dasharray:none;stroke-opacity:1" />
    <rect
       y="16"
       x="24"
       height="11"
       width="3"
       id="rect4391"
       style="opacity:1;fill:#f9e649;fill-opacity:1;fill-rule:nonzero;stroke:none;stroke-width:30.89999962;stroke-linejoin:round;stroke-miterlimit:4;stroke-dasharray:none;stroke-opacity:1" />
    <rect
       y="16"
       x="27"
       height="11"
       width="3"
       id="rect4393"
       style="opacity:1;fill:#ff5b55;fill-opacity:1;fill-rule:nonzero;stroke:none;stroke-width:30.89999962;stroke-linejoin:round;stroke-miterlimit:4;stroke-dasharray:none;stroke-opacity:1" />
    <rect
       y="16"
       x="30"
       height="11"
       width="1"
       id="rect4395"
       style="opacity:1;fill:#f9e649;fill-opacity:1;fill-rule:nonzero;stroke:none;stroke-width:30.89999962;stroke-linejoin:round;stroke-miterlimit:4;stroke-dasharray:none;stroke-opacity:1" />
  </g>
  <path
     sodipodi:nodetypes="cccc"
     inkscape:connector-curvature="0"
     id="path4457"
     d="m 13.000003,33.5 c -0.003,-2.25532 2.229058,-2.796336 3.989173,-3.244009 l 1.042683,7.047099 z"
     style="opacity:1;fill:#353535;fill-opacity:1;fill-rule:evenodd;stroke:none;stroke-width:1px;stroke-linecap:butt;stroke-linejoin:miter;stroke-opacity:1" />
  <path
     style="fill:#f9e649;fill-rule:evenodd;stroke:none;stroke-width:1px;stroke-linecap:butt;stroke-linejoin:miter;stroke-opacity:1;fill-opacity:1"
     d="M 18 27 L 14.851562 45.105469 C 16.014387 45.610211 17.227331 46.019366 18.480469 46.328125 L 21 27 L 18 27 z "
     id="path4321" />
  <path
     style="opacity:1;fill:#353535;fill-opacity:1;fill-rule:evenodd;stroke:none;stroke-width:1px;stroke-linecap:butt;stroke-linejoin:miter;stroke-opacity:1"
     d="m 35,30.5 c 0.003,2.25532 -2.229058,2.796336 -3.989173,3.244009 L 29.968144,26.69691 Z"
     id="path4273"
     inkscape:connector-curvature="0"
     sodipodi:nodetypes="cccc" />
  <path
     style="opacity:1;fill:#f9e649;fill-opacity:1;fill-rule:nonzero;stroke:none;stroke-width:30.89999962;stroke-linejoin:round;stroke-miterlimit:4;stroke-dasharray:none;stroke-opacity:1"
     d="M 18 14 L 18 16 L 21 16 L 21 14 L 18 14 z M 24 14 L 24 16 L 27 16 L 27 14 L 24 14 z M 30 14 L 30 16 L 31 16 L 31 14 L 30 14 z "
     id="rect4235" />
  <circle
     style="opacity:1;fill:#ff5b55;fill-opacity:1;fill-rule:nonzero;stroke:none;stroke-width:30.89999962;stroke-linejoin:round;stroke-miterlimit:4;stroke-dasharray:none;stroke-opacity:1"
     id="path4237"
     cx="17"
     cy="15"
     r="1" />
  <circle
     style="opacity:1;fill:#f9e649;fill-opacity:1;fill-rule:nonzero;stroke:none;stroke-width:30.89999962;stroke-linejoin:round;stroke-miterlimit:4;stroke-dasharray:none;stroke-opacity:1"
     id="path4239"
     cx="31"
     cy="15"
     r="1" />
  <path
     style="opacity:1;fill:#353535;fill-opacity:1;fill-rule:nonzero;stroke:none;stroke-width:30.89999962;stroke-linejoin:round;stroke-miterlimit:4;stroke-dasharray:none;stroke-opacity:1"
     d="M 27.5 16.5 A 1.5 1.5 0 0 0 26 18 L 26 23 L 29 23 L 29 18 A 1.5 1.5 0 0 0 27.5 16.5 z "
     id="rect4289" />
  <rect
     style="opacity:1;fill:#353535;fill-opacity:1;fill-rule:nonzero;stroke:none;stroke-width:30.89999962;stroke-linejoin:round;stroke-miterlimit:4;stroke-dasharray:none;stroke-opacity:1"
     id="rect4285"
     width="2"
     height="5"
     x="20"
     y="17" />
  <rect
     style="opacity:1;fill:#353535;fill-opacity:1;fill-rule:nonzero;stroke:none;stroke-width:30.89999962;stroke-linejoin:round;stroke-miterlimit:4;stroke-dasharray:none;stroke-opacity:1"
     id="rect4287"
     width="2"
     height="5"
     x="17"
     y="17" />
  <path
     style="fill:#ff5b55;fill-rule:evenodd;stroke:none;stroke-width:1px;stroke-linecap:butt;stroke-linejoin:miter;stroke-opacity:1;fill-opacity:1"
     d="M 17 27 C 17 27.810956 14.188561 39.1699 12.945312 44.171875 C 13.563939 44.511633 14.199952 44.822627 14.851562 45.105469 L 18 27 L 17 27 z "
     id="path4316" />
  <path
     style="fill:#ff5b55;fill-rule:evenodd;stroke:none;stroke-width:1px;stroke-linecap:butt;stroke-linejoin:miter;stroke-opacity:1;fill-opacity:1"
     d="M 21 27 L 18.480469 46.328125 C 20.249264 46.763936 22.096625 47 24 47 L 24 27 L 21 27 z "
     id="path4326" />
  <path
     style="fill:#f9e649;fill-opacity:1;fill-rule:evenodd;stroke:none;stroke-width:1px;stroke-linecap:butt;stroke-linejoin:miter;stroke-opacity:1"
     d="M 30 27 L 33.148438 45.105469 C 33.800048 44.822627 34.436061 44.511633 35.054688 44.171875 C 33.811439 39.1699 31 27.810956 31 27 L 30 27 z "
     id="path4331" />
  <path
     style="fill:#ff5b55;fill-opacity:1;fill-rule:evenodd;stroke:none;stroke-width:1px;stroke-linecap:butt;stroke-linejoin:miter;stroke-opacity:1"
     d="M 27 27 L 29.519531 46.328125 C 30.772669 46.019366 31.985613 45.610211 33.148438 45.105469 L 30 27 L 27 27 z "
     id="path4333" />
  <path
     style="fill:#f9e649;fill-opacity:1;fill-rule:evenodd;stroke:none;stroke-width:1px;stroke-linecap:butt;stroke-linejoin:miter;stroke-opacity:1"
     d="M 24 27 L 24 47 C 25.903375 47 27.750736 46.763936 29.519531 46.328125 L 27 27 L 24 27 z "
     id="path4335" />
  <path
     style="opacity:0.1;fill:#000000;fill-opacity:1;fill-rule:nonzero;stroke:none;stroke-width:30.89999962;stroke-linejoin:round;stroke-miterlimit:4;stroke-dasharray:none;stroke-opacity:1"
     d="M 24 23 L 24 28 C 28.23538 28 30.826875 28.870636 33.144531 30 L 33.162109 30 L 33.162109 30.007812 L 34.958984 30.978516 C 34.983107 30.826992 35.000227 30.670396 35 30.5 L 34.816406 30.361328 L 34 29.849609 L 34 25.486328 C 31.418828 23.922759 27.873868 23 24 23 z "
     id="rect4567" />
  <path
     style="opacity:1;fill:#8b9093;fill-opacity:1;fill-rule:evenodd;stroke:none;stroke-width:1px;stroke-linecap:butt;stroke-linejoin:miter;stroke-opacity:1"
     d="M 35,30.5 35,26 C 32.473327,23.524222 28,22 23,22 l 0,5 c 6,0 8.713652,1.734731 12,3.5 z"
     id="path4271"
     inkscape:connector-curvature="0"
     sodipodi:nodetypes="ccccc" />
  <rect
     style="opacity:1;fill:#ff5b55;fill-opacity:1;fill-rule:nonzero;stroke:none;stroke-width:30.89999962;stroke-linejoin:round;stroke-miterlimit:4;stroke-dasharray:none;stroke-opacity:1"
     id="rect4405"
     width="1"
     height="2"
     x="17"
     y="14" />
  <rect
     style="opacity:1;fill:#ff5b55;fill-opacity:1;fill-rule:nonzero;stroke:none;stroke-width:30.89999962;stroke-linejoin:round;stroke-miterlimit:4;stroke-dasharray:none;stroke-opacity:1"
     id="rect4407"
     width="3"
     height="2"
     x="21"
     y="14" />
  <rect
     style="opacity:1;fill:#ff5b55;fill-opacity:1;fill-rule:nonzero;stroke:none;stroke-width:30.89999962;stroke-linejoin:round;stroke-miterlimit:4;stroke-dasharray:none;stroke-opacity:1"
     id="rect4409"
     width="3"
     height="2"
     x="27"
     y="14" />
  <path
     style="fill:#f9e649;fill-opacity:1;fill-rule:evenodd;stroke:none;stroke-width:1px;stroke-linecap:butt;stroke-linejoin:miter;stroke-opacity:1"
     d="m 18,14 c 0.02643,-2.017003 2.03663,-4.0731541 6,-5 -0.212121,0.350197 -3.13051,1.809505 -3,5 z"
     id="path4419"
     inkscape:connector-curvature="0"
     sodipodi:nodetypes="cccc" />
  <path
     sodipodi:nodetypes="cccc"
     inkscape:connector-curvature="0"
     id="path4424"
     d="m 30,14 c -0.02643,-2.017003 -2.03663,-4.0731541 -6,-5 0.212121,0.350197 3.13051,1.809505 3,5 z"
     style="fill:#ff5b55;fill-opacity:1;fill-rule:evenodd;stroke:none;stroke-width:1px;stroke-linecap:butt;stroke-linejoin:miter;stroke-opacity:1" />
  <path
     style="fill:#ff5b55;fill-rule:evenodd;stroke:none;stroke-width:1px;stroke-linecap:butt;stroke-linejoin:miter;stroke-opacity:1;fill-opacity:1"
     d="M 24 9 C 23.787879 9.350197 20.86949 10.809505 21 14 L 24 14 L 24 9 z "
     id="path4429" />
  <path
     id="path4437"
     d="m 24,9 c 0.212121,0.350197 3.13051,1.809505 3,5 l -3,0 0,-5 z"
     style="fill:#f9e649;fill-opacity:1;fill-rule:evenodd;stroke:none;stroke-width:1px;stroke-linecap:butt;stroke-linejoin:miter;stroke-opacity:1"
     inkscape:connector-curvature="0" />
  <path
     style="opacity:1;fill:#ff5b55;fill-opacity:1;fill-rule:nonzero;stroke:none;stroke-width:30.89999962;stroke-linejoin:round;stroke-miterlimit:4;stroke-dasharray:none;stroke-opacity:1"
     d="M 24 9 A 7 5.142857 0 0 0 17.007812 14 L 18 14 C 18.02643 11.982997 20.03663 9.9268459 24 9 z "
     id="rect4442" />
  <path
     style="opacity:0.1;fill:#000000;fill-opacity:1;fill-rule:evenodd;stroke:none;stroke-width:1px;stroke-linecap:butt;stroke-linejoin:miter;stroke-opacity:1"
     d="m 14,34.5 0,4.5 c 2.526673,2.475778 7,4 12,4 l 0,-5 c -6,0 -8.713652,-1.734731 -12,-3.5 z"
     id="path4545"
     inkscape:connector-curvature="0"
     sodipodi:nodetypes="ccccc" />
  <path
     sodipodi:nodetypes="ccccc"
     inkscape:connector-curvature="0"
     id="path4459"
     d="m 13.000003,33.5 0,4.5 c 2.526673,2.475778 7,4 12,4 l 0,-5 c -6,0 -8.713652,-1.734731 -12,-3.5 z"
     style="opacity:1;fill:#8b9093;fill-opacity:1;fill-rule:evenodd;stroke:none;stroke-width:1px;stroke-linecap:butt;stroke-linejoin:miter;stroke-opacity:1" />
  <g
     id="g63">
    <path
       d="m 40.03 7.531 c 3.712 4.084 5.969 9.514 5.969 15.469 0 12.703 -10.297 23 -23 23 c -5.954 0 -11.384 -2.256 -15.469 -5.969 4.178 4.291 10.01 6.969 16.469 6.969 c 12.703 0 23 -10.298 23 -23 0 -6.462 -2.677 -12.291 -6.969 -16.469 z"
       id="path65"
       opacity="0.1" />
  </g>
</svg>

<svg xmlns="http://www.w3.org/2000/svg" viewBox="0 0 48 48"><defs><clipPath><g transform="translate(0,-1004.3622)"><path d="m -24 13 c 0 1.105 -0.672 2 -1.5 2 -0.828 0 -1.5 -0.895 -1.5 -2 0 -1.105 0.672 -2 1.5 -2 0.828 0 1.5 0.895 1.5 2 z" transform="matrix(15.333333,0,0,11.5,414.99999,878.8622)" fill="#1890d0"/></g></clipPath><clipPath><g transform="translate(0,-1004.3622)"><path d="m -24 13 c 0 1.105 -0.672 2 -1.5 2 -0.828 0 -1.5 -0.895 -1.5 -2 0 -1.105 0.672 -2 1.5 -2 0.828 0 1.5 0.895 1.5 2 z" transform="matrix(15.333333,0,0,11.5,414.99999,878.8622)" fill="#1890d0"/></g></clipPath><linearGradient id="linearGradient4475" x1="1" x2="47" gradientUnits="userSpaceOnUse" gradientTransform="translate(-48,0)"><stop stop-color="#89bdef" stop-opacity="1"/><stop offset="1" stop-color="#9bc7f1" stop-opacity="1"/></linearGradient></defs><g><path d="m 36.31 5 c 5.859 4.062 9.688 10.831 9.688 18.5 c 0 12.426 -10.07 22.5 -22.5 22.5 c -7.669 0 -14.438 -3.828 -18.5 -9.688 c 1.037 1.822 2.306 3.499 3.781 4.969 c 4.085 3.712 9.514 5.969 15.469 5.969 c 12.703 0 23 -10.298 23 -23 c 0 -5.954 -2.256 -11.384 -5.969 -15.469 c -1.469 -1.475 -3.147 -2.744 -4.969 -3.781 z m 4.969 3.781 c 3.854 4.113 6.219 9.637 6.219 15.719 c 0 12.703 -10.297 23 -23 23 c -6.081 0 -11.606 -2.364 -15.719 -6.219 c 4.16 4.144 9.883 6.719 16.219 6.719 c 12.703 0 23 -10.298 23 -23 c 0 -6.335 -2.575 -12.06 -6.719 -16.219 z" opacity="0.05"/><path d="m 41.28 8.781 c 3.712 4.085 5.969 9.514 5.969 15.469 c 0 12.703 -10.297 23 -23 23 c -5.954 0 -11.384 -2.256 -15.469 -5.969 c 4.113 3.854 9.637 6.219 15.719 6.219 c 12.703 0 23 -10.298 23 -23 c 0 -6.081 -2.364 -11.606 -6.219 -15.719 z" opacity="0.1"/><path d="m 31.25 2.375 c 8.615 3.154 14.75 11.417 14.75 21.13 c 0 12.426 -10.07 22.5 -22.5 22.5 c -9.708 0 -17.971 -6.135 -21.12 -14.75 a 23 23 0 0 0 44.875 -7 a 23 23 0 0 0 -16 -21.875 z" opacity="0.2"/></g><circle cx="-24" cy="24" r="23" transform="matrix(0,-1,1,0,0,0)" opacity="1" fill="url(#linearGradient4475)" fill-rule="nonzero" stroke="none" fill-opacity="1"/><path d="m 25 9 l -0.51 1.018 a 7 5.143 0 0 0 -6.482 4.982 l -0.008 0 a 1 1 0 0 0 -1 1 a 1 1 0 0 0 1 1 l 0 1 l 0 5 l 0 5 c 0 0.792 -2.659 11.547 -3.941 16.709 a 23 23 0 0 0 9.941 2.291 a 23 23 0 0 0 11.709 -3.234 c -0.655 -2.639 -1.555 -6.284 -2.305 -9.41 c 1.36 -0.448 2.598 -1.175 2.596 -2.855 l 0 -4.5 c -0.869 -0.851 -1.981 -1.581 -3.252 -2.184 l 0 4.227 l -0.664 -0.502 c -0.045 -0.242 -0.084 -0.465 -0.084 -0.541 l 0 -11 a 1 1 0 0 0 1 -1 a 1 1 0 0 0 -1 -1 a 7.01 5.143 0 0 0 -6.49 -4.982 l -0.51 -1.018 z m 4.525 3.133 c 0 0 0.002 0 0.002 0 c 0.972 0.872 1.465 1.874 1.479 2.867 l -0.006 0 c -0.013 -0.992 -0.505 -1.995 -1.475 -2.867 z" opacity="0.1" fill="#000" fill-rule="evenodd" stroke="none" fill-opacity="1"/><path d="M 24 9 A 7.01 5.143 0 0 1 31 14 l -0.993 0 C 29.98 11.983 27.968 9.927 24 9" opacity="1" fill="#f9e649" fill-rule="nonzero" stroke="none" fill-opacity="1"/><path d="m 23 10 1 -2 1 2 z" fill="#8b9093" fill-rule="evenodd" stroke="none" fill-opacity="1"/><g><rect y="16" x="17" height="11" width="1" opacity="1" fill="#ff5b55" fill-rule="nonzero" stroke="none" fill-opacity="1"/><rect y="16" x="18" height="11" width="3" opacity="1" fill="#f9e649" fill-rule="nonzero" stroke="none" fill-opacity="1"/><rect y="16" x="21" height="11" width="3" opacity="1" fill="#ff5b55" fill-rule="nonzero" stroke="none" fill-opacity="1"/><rect y="16" x="24" height="11" width="3" opacity="1" fill="#f9e649" fill-rule="nonzero" stroke="none" fill-opacity="1"/><rect y="16" x="27" height="11" width="3" opacity="1" fill="#ff5b55" fill-rule="nonzero" stroke="none" fill-opacity="1"/><rect y="16" x="30" height="11" width="1" opacity="1" fill="#f9e649" fill-rule="nonzero" stroke="none" fill-opacity="1"/></g><path d="m 13 33.5 c -0.003 -2.255 2.229 -2.796 3.989 -3.244 l 1.043 7.05 z" opacity="1" fill="#353535" fill-rule="evenodd" stroke="none" fill-opacity="1"/><path d="m 18 27 l -3.148 18.11 c 1.163 0.505 2.376 0.914 3.629 1.223 l 2.52 -19.328 l -3 0 z" fill="#f9e649" fill-rule="evenodd" stroke="none" fill-opacity="1"/><path d="m 35 30.5 c 0.003 2.255 -2.229 2.796 -3.989 3.244 l -1.043 -7.05" opacity="1" fill="#353535" fill-rule="evenodd" stroke="none" fill-opacity="1"/><path d="m 18 14 l 0 2 l 3 0 l 0 -2 l -3 0 z m 6 0 l 0 2 l 3 0 l 0 -2 l -3 0 z m 6 0 l 0 2 l 1 0 l 0 -2 l -1 0 z" opacity="1" fill="#f9e649" fill-rule="nonzero" stroke="none" fill-opacity="1"/><circle cx="17" cy="15" r="1" opacity="1" fill="#ff5b55" fill-rule="nonzero" stroke="none" fill-opacity="1"/><circle cx="31" cy="15" r="1" opacity="1" fill="#f9e649" fill-rule="nonzero" stroke="none" fill-opacity="1"/><path d="M 27.5 16.5 A 1.5 1.5 0 0 0 26 18 L 26 23 L 29 23 L 29 18 A 1.5 1.5 0 0 0 27.5 16.5 z" opacity="1" fill="#353535" fill-rule="nonzero" stroke="none" fill-opacity="1"/><rect width="2" height="5" x="20" y="17" opacity="1" fill="#353535" fill-rule="nonzero" stroke="none" fill-opacity="1"/><rect width="2" height="5" x="17" y="17" opacity="1" fill="#353535" fill-rule="nonzero" stroke="none" fill-opacity="1"/><path d="m 17 27 c 0 0.811 -2.811 12.17 -4.055 17.17 c 0.619 0.34 1.255 0.651 1.906 0.934 l 3.148 -18.11 l -1 0 z" fill="#ff5b55" fill-rule="evenodd" stroke="none" fill-opacity="1"/><path d="m 21 27 l -2.52 19.328 c 1.769 0.436 3.616 0.672 5.52 0.672 l 0 -20 l -3 0 z" fill="#ff5b55" fill-rule="evenodd" stroke="none" fill-opacity="1"/><path d="m 30 27 l 3.148 18.11 c 0.652 -0.283 1.288 -0.594 1.906 -0.934 c -1.243 -5 -4.055 -16.361 -4.055 -17.17 l -1 0 z" fill="#f9e649" fill-rule="evenodd" stroke="none" fill-opacity="1"/><path d="m 27 27 l 2.52 19.328 c 1.253 -0.309 2.466 -0.718 3.629 -1.223 l -3.148 -18.11 l -3 0 z" fill="#ff5b55" fill-rule="evenodd" stroke="none" fill-opacity="1"/><path d="m 24 27 l 0 20 c 1.903 0 3.751 -0.236 5.52 -0.672 l -2.52 -19.328 l -3 0 z" fill="#f9e649" fill-rule="evenodd" stroke="none" fill-opacity="1"/><path d="m 24 23 l 0 5 c 4.235 0 6.827 0.871 9.145 2 l 0.018 0 l 0 0.008 l 1.797 0.971 c 0.024 -0.152 0.041 -0.308 0.041 -0.479 l -0.184 -0.139 l -0.816 -0.512 l 0 -4.363 c -2.581 -1.564 -6.126 -2.486 -10 -2.486 z" opacity="0.1" fill="#000" fill-rule="nonzero" stroke="none" fill-opacity="1"/><path d="m 35 30.5 0 -4.5 c -2.527 -2.476 -7 -4 -12 -4 l 0 5 c 6 0 8.714 1.735 12 3.5 z" opacity="1" fill="#8b9093" fill-rule="evenodd" stroke="none" fill-opacity="1"/><rect width="1" height="2" x="17" y="14" opacity="1" fill="#ff5b55" fill-rule="nonzero" stroke="none" fill-opacity="1"/><rect width="3" height="2" x="21" y="14" opacity="1" fill="#ff5b55" fill-rule="nonzero" stroke="none" fill-opacity="1"/><rect width="3" height="2" x="27" y="14" opacity="1" fill="#ff5b55" fill-rule="nonzero" stroke="none" fill-opacity="1"/><path d="m 18 14 c 0.026 -2.02 2.037 -4.073 6 -5 -0.212 0.35 -3.131 1.81 -3 5 z" fill="#f9e649" fill-rule="evenodd" stroke="none" fill-opacity="1"/><path d="m 30 14 c -0.026 -2.02 -2.037 -4.073 -6 -5 0.212 0.35 3.131 1.81 3 5 z" fill="#ff5b55" fill-rule="evenodd" stroke="none" fill-opacity="1"/><path d="m 24 9 c -0.212 0.35 -3.131 1.81 -3 5 l 3 0 l 0 -5 z" fill="#ff5b55" fill-rule="evenodd" stroke="none" fill-opacity="1"/><path d="m 24 9 c 0.212 0.35 3.131 1.81 3 5 l -3 0 0 -5 z" fill="#f9e649" fill-rule="evenodd" stroke="none" fill-opacity="1"/><path d="M 24 9 A 7 5.143 0 0 0 17.01 14 L 18 14 C 18.03 11.983 20.04 9.927 24 9 z" opacity="1" fill="#ff5b55" fill-rule="nonzero" stroke="none" fill-opacity="1"/><path d="m 14 34.5 0 4.5 c 2.527 2.476 7 4 12 4 l 0 -5 c -6 0 -8.714 -1.735 -12 -3.5 z" opacity="0.1" fill="#000" fill-rule="evenodd" stroke="none" fill-opacity="1"/><path d="m 13 33.5 0 4.5 c 2.527 2.476 7 4 12 4 l 0 -5 c -6 0 -8.714 -1.735 -12 -3.5 z" opacity="1" fill="#8b9093" fill-rule="evenodd" stroke="none" fill-opacity="1"/><g><path d="m 40.03 7.531 c 3.712 4.084 5.969 9.514 5.969 15.469 0 12.703 -10.297 23 -23 23 c -5.954 0 -11.384 -2.256 -15.469 -5.969 4.178 4.291 10.01 6.969 16.469 6.969 c 12.703 0 23 -10.298 23 -23 0 -6.462 -2.677 -12.291 -6.969 -16.469 z" opacity="0.1"/></g></svg>
